X:1
T: Emma Turns Three
N:
C:Jonathan Jensen
S:3 times
A:
O:
R:
M:4/4
K:D
I:speed 228
%W:         A
% voice 1 (1 lines, 31 notes)
K:D
M:4/4
L:1/16
d6 e2 |f4 A4 f4 A4 |f4 A4 e6 f2 |g6 f2 e4 d4 |B8 B6 =c2 |c4 a8 c4 |B4 g8 B4 |A4 f4 e4 d4 |c4 A4 d6 e2 |
%W:
% voice 1 (1 lines, 28 notes)
f4 A4 f4 A4 |f4 A4 e6 f2 |g6 f2 e4 d4 |B8 B6 =c2 |c4 a8 c4 |B4 g8 B4 |A4 g4 f4 e4 |d8 d6 c2 |
%W:         B
% voice 1 (1 lines, 27 notes)
B4 G4 B4 d4 |g8 c6 B2 |A4 F4 A4 d4 |f8 f6 e2 |d4 B8 e4 |c4 A8 c4 |B4 d4 c4 B4 |A8 A6 G2 |
%W:
% voice 1 (1 lines, 26 notes)
F4 D4 F4 A4 |d4 e4 f4 a4 |g6 f2 e4 d4 |B8 B6 =c2 |c4 a8 c4 |B4 g8 B4 |A4 g4 f4 e4 |d8 ||
